tools/download-figma-icons/icons/solid/oeko.svg

<svg width="25" height="24" viewBox="0 0 25 24" fill="none" xmlns="http://www.w3.org/2000/svg">
<path fill-rule="evenodd" clip-rule="evenodd" d="M23.7605 7.36441V7.37191C22.9348 10.0569 20.168 11.6169 19.0431 12.1576V16.4543C19.0431 20.6093 15.6598 23.9917 11.4974 23.9917C7.56817 23.9917 4.32821 20.9618 3.99071 17.1143C1.74073 16.7693 0 14.8193 0 12.4726V9.05939C0 8.6469 0.338247 8.3094 0.749992 8.3094H1.68073V5.78943C1.68073 5.37768 2.01823 5.03943 2.43073 5.03943C2.84247 5.03943 3.18072 5.37768 3.18072 5.78943V8.3094H6.06819V5.78943C6.06819 5.37768 6.39818 5.03943 6.81818 5.03943C7.23068 5.03943 7.56817 5.37768 7.56817 5.78943V8.3094H8.66241C9.07566 8.3094 9.4124 8.6469 9.4124 9.05939V12.4726C9.4124 14.7968 7.71742 16.7243 5.49744 17.1068C5.82069 20.13 8.38566 22.4918 11.4974 22.4918C14.8356 22.4918 17.5431 19.785 17.5431 16.4543V12.3519C16.1931 12.1869 13.2899 11.5869 11.7081 9.44264C9.63815 6.65192 10.7331 2.47446 10.7774 2.29446C10.8681 1.95697 11.1599 1.70947 11.5274 1.73947C11.6706 1.74697 14.6931 1.87447 16.8906 3.5327C18.4123 1.22947 21.2173 0.104484 21.3523 0.0519848C21.668 -0.0755139 22.043 0.036985 22.238 0.329482C22.3423 0.47948 24.7655 4.04944 23.7605 7.36441Z" fill="black"/>
</svg>

<svg width="25" height="24" viewBox="0 0 25 24" fill="none" xmlns="http://www.w3.org/2000/svg"><path fill-rule="evenodd" clip-rule="evenodd" d="M23.76 7.364v.008c-.825 2.685-3.592 4.245-4.717 4.786v4.296c0 4.155-3.383 7.538-7.546 7.538-3.929 0-7.169-3.03-7.506-6.878C1.74 16.77 0 14.82 0 12.473V9.059c0-.412.338-.75.75-.75h.93V5.79c0-.411.338-.75.75-.75s.75.339.75.75v2.52h2.888V5.79c0-.411.33-.75.75-.75.413 0 .75.339.75.75v2.52h1.094c.414 0 .75.338.75.75v3.414c0 2.324-1.695 4.251-3.915 4.634a6.04 6.04 0 0 0 6 5.385 6.044 6.044 0 0 0 6.046-6.038v-4.102c-1.35-.165-4.253-.765-5.835-2.91-2.07-2.79-.975-6.968-.93-7.148.09-.337.382-.585.75-.555.143.008 3.165.135 5.363 1.794 1.521-2.305 4.326-3.43 4.461-3.482a.74.74 0 0 1 .886.277c.104.15 2.527 3.72 1.523 7.035Z" fill="currentColor"/></svg>
